assets/img/windowsplitter.svg

<svg height="84" viewBox="0 0 84 84" width="84" xmlns="http://www.w3.org/2000/svg" xmlns:xlink="http://www.w3.org/1999/xlink"><filter id="a" filterUnits="userSpaceOnUse" height="86" width="87" x="-1.5" y="-1.5"><feOffset/><feGaussianBlur result="blur" stdDeviation="2.5"/><feFlood flood-color="#aac7e5"/><feComposite in2="blur" operator="in"/><feComposite in="SourceGraphic"/></filter><clipPath id="b"><path d="m0 0h84v84h-84z"/></clipPath><g clip-path="url(#b)"><path d="m0 0h84v84h-84z" fill="#fff"/><path d="m3 14.333h78a3 3 0 0 1 3 3v78a3 3 0 0 1 -3 3h-78a3 3 0 0 1 -3-3v-78a3 3 0 0 1 3-3z" fill="#e1ecf7" transform="translate(0 -14.333)"/><g filter="url(#a)"><rect fill="#fff" height="71" rx="3" transform="translate(6 6)" width="72"/></g><path d="m3 0h66a3 3 0 0 1 3 3v10a0 0 0 0 1 0 0h-72a0 0 0 0 1 0 0v-10a3 3 0 0 1 3-3z" fill="#215a9c" transform="translate(6 6)"/><g fill="#185a6a"><path d="m0 0h58.426v2h-58.426z" transform="matrix(0 -1 1 0 42.906 77.173)"/><path d="m0 0h58.426v2h-58.426z" transform="matrix(0 -1 1 0 38.094 77.173)"/><path d="m0 0h10v2h-10z" transform="translate(43.906 45.041)"/><path d="m0 0 4.661 4.661 4.662-4.661z" transform="matrix(0 -1 1 0 51.416 50.716)"/><path d="m0 0h10v2h-10z" transform="matrix(-1 0 0 -1 39.094 47.068)"/><path d="m0 0 4.661 4.661 4.662-4.661z" transform="matrix(0 1 -1 0 31.584 41.393)"/></g></g></svg>

<svg xmlns="http://www.w3.org/2000/svg" xmlns:xlink="http://www.w3.org/1999/xlink" width="84" height="84" viewBox="0 0 84 84">
  <defs>
    <filter id="Rectangle_318" x="-1.5" y="-1.5" width="87" height="86" filterUnits="userSpaceOnUse">
      <feOffset input="SourceAlpha"/>
      <feGaussianBlur stdDeviation="2.5" result="blur"/>
      <feFlood flood-color="#aac7e5"/>
      <feComposite operator="in" in2="blur"/>
      <feComposite in="SourceGraphic"/>
    </filter>
    <clipPath id="clip-windowsplitter">
      <rect width="84" height="84"/>
    </clipPath>
  </defs>
  <g id="windowsplitter" clip-path="url(#clip-windowsplitter)">
    <rect width="84" height="84" fill="#fff"/>
    <g id="Group_300" data-name="Group 300" transform="translate(-894 -682)">
      <path id="Union_5" data-name="Union 5" d="M3,14.333H81a3,3,0,0,1,3,3v78a3,3,0,0,1-3,3H3a3,3,0,0,1-3-3v-78A3,3,0,0,1,3,14.333Z" transform="translate(894 667.667)" fill="#e1ecf7"/>
      <g transform="matrix(1, 0, 0, 1, 894, 682)" filter="url(#Rectangle_318)">
        <rect id="Rectangle_318-2" data-name="Rectangle 318" width="72" height="71" rx="3" transform="translate(6 6)" fill="#fff"/>
      </g>
      <path id="Rectangle_317" data-name="Rectangle 317" d="M3,0H69a3,3,0,0,1,3,3V13a0,0,0,0,1,0,0H0a0,0,0,0,1,0,0V3A3,3,0,0,1,3,0Z" transform="translate(900 688)" fill="#215a9c"/>
      <rect id="Rectangle_319" data-name="Rectangle 319" width="58.426" height="2" transform="translate(936.906 759.173) rotate(-90)" fill="#185a6a"/>
      <rect id="Rectangle_320" data-name="Rectangle 320" width="58.426" height="2" transform="translate(932.094 759.173) rotate(-90)" fill="#185a6a"/>
      <g id="Group_242" data-name="Group 242" transform="translate(937.906 723.393)">
        <rect id="Rectangle_223" data-name="Rectangle 223" width="10" height="2" transform="translate(0 3.648)" fill="#185a6a"/>
        <path id="Icon_ionic-md-arrow-dropup" data-name="Icon ionic-md-arrow-dropup" d="M0,0,4.661,4.661,9.323,0Z" transform="translate(7.51 9.323) rotate(-90)" fill="#185a6a"/>
      </g>
      <g id="Group_248" data-name="Group 248" transform="translate(933.094 732.716) rotate(180)">
        <rect id="Rectangle_223-2" data-name="Rectangle 223" width="10" height="2" transform="translate(0 3.648)" fill="#185a6a"/>
        <path id="Icon_ionic-md-arrow-dropup-2" data-name="Icon ionic-md-arrow-dropup" d="M0,0,4.661,4.661,9.323,0Z" transform="translate(7.51 9.323) rotate(-90)" fill="#185a6a"/>
      </g>
    </g>
  </g>
</svg>
